brandFactory_export/1.Light/Chat_hablar_1Light.svg

<?xml version="1.0" encoding="UTF-8"?>
<svg width="24px" height="24px" viewBox="0 0 24 24" version="1.1" xmlns="http://www.w3.org/2000/svg" xmlns:xlink="http://www.w3.org/1999/xlink">
    <title>1.Light/Chat_hablar_1Light</title>
    <g id="Symbols" stroke="none" stroke-width="1" fill="none" fill-rule="evenodd">
        <g id="1.Light/Chat_hablar_1Light" fill="#5CB615" fill-rule="nonzero">
            <path d="M20.4369748,1.00672269 C22.1815126,1.01008403 23.5966387,2.42521008 23.5966387,4.1697479 L23.5966387,15.5210084 C23.5932773,17.2655462 22.1815126,18.6806723 20.4336134,18.6840336 L7.13277311,18.6840336 C6.63193277,19.4302521 4.47058824,22.6336134 4.3394958,22.8252101 C4.08739496,23.1915966 3.77142857,23.2689076 3.55294118,23.2689076 C3.05882353,23.2689076 2.62857143,22.8588235 2.62857143,22.394958 L2.62857143,18.6638655 C1.93277311,18.5932773 1.2907563,18.2638655 0.826890756,17.7428571 C0.309243698,17.1647059 0.0235294119,16.3747899 0.0235294119,15.5210084 L0.0235294119,4.1697479 C0.0268907565,2.42184874 1.44201681,1.01008403 3.18991597,1.00672269 L20.4369748,1.00672269 Z M20.4336134,1.6789916 L3.18991597,1.68235294 C1.81512605,1.68235294 0.699159664,2.79831933 0.695798319,4.17310924 L0.695798319,15.5210084 C0.695798319,16.9630252 1.64705882,18.0117647 2.96134454,18.0117647 C3.14621849,18.0117647 3.29747899,18.1630252 3.29747899,18.3478992 L3.29747899,22.394958 C3.29747899,22.4722689 3.41512605,22.5966387 3.54957983,22.5966387 C3.61344538,22.5966387 3.6907563,22.5798319 3.78151261,22.4453782 C3.92605042,22.2336134 6.64537815,18.2 6.67226891,18.1596639 C6.73613445,18.0655462 6.84033613,18.0117647 6.9512605,18.0117647 L20.4369748,18.0117647 C21.8117647,18.0084034 22.9243697,16.8957983 22.9243697,15.5210084 L22.9243697,4.1697479 C22.9243697,2.79495798 21.8084034,1.68235294 20.4336134,1.6789916 Z M14.7193277,12.1226891 C14.9042017,12.1226891 15.0554622,12.2739496 15.0554622,12.4588235 C15.0554622,12.6436975 14.9042017,12.794958 14.7193277,12.794958 L4.31596639,12.794958 C4.13109244,12.794958 3.97983193,12.6436975 3.97983193,12.4588235 C3.97983193,12.2739496 4.13109244,12.1226891 4.31596639,12.1226891 L14.7193277,12.1226891 Z M19.307563,6.8789916 C19.492437,6.8789916 19.6436975,7.0302521 19.6436975,7.21512605 C19.6436975,7.4 19.492437,7.5512605 19.307563,7.5512605 L4.31596639,7.5512605 C4.13109244,7.5512605 3.97983193,7.4 3.97983193,7.21512605 C3.97983193,7.0302521 4.13109244,6.8789916 4.31596639,6.8789916 L19.307563,6.8789916 Z" id="Chat_hablar_1Light"></path>
        </g>
    </g>
</svg>

<svg width="24" height="24" viewBox="0 0 24 24" xmlns="http://www.w3.org/2000/svg"><path d="M20.437 1.007a3.165 3.165 0 013.16 3.163V15.52a3.168 3.168 0 01-3.163 3.163H7.133c-.501.746-2.662 3.95-2.794 4.141-.252.367-.568.444-.786.444-.494 0-.924-.41-.924-.874v-3.731a2.789 2.789 0 01-1.802-.921c-.518-.578-.803-1.368-.803-2.222V4.17A3.169 3.169 0 013.19 1.007h17.247zm-.003.672L3.19 1.682A2.497 2.497 0 00.696 4.173v11.348c0 1.442.951 2.49 2.265 2.49.185 0 .336.152.336.337v4.047c0 .077.118.202.253.202.063 0 .14-.017.232-.152.144-.211 2.863-4.245 2.89-4.285a.336.336 0 01.28-.148h13.485a2.491 2.491 0 002.487-2.491V4.17a2.494 2.494 0 00-2.49-2.491zm-5.715 10.444c.185 0 .336.15.336.336a.337.337 0 01-.336.336H4.316a.337.337 0 01-.336-.336c0-.185.151-.336.336-.336h10.403zm4.589-5.244c.184 0 .336.151.336.336a.337.337 0 01-.336.336H4.316a.337.337 0 01-.336-.336c0-.185.151-.336.336-.336h14.992z" fill="#5CB615" fill-rule="nonzero"/></svg>
